assets/img/braze_icons/file-code-01.svg

<svg fill="none" height="24" viewBox="0 0 24 24" width="24" xmlns="http://www.w3.org/2000/svg"><g fill="#801ed7"><path clip-rule="evenodd" d="m12.9989 1.95227c.0011.02385.0011.037.0011.06331v4.41633c0 .25238-.0001.49817.017.70633.0186.22859.0627.49833.201.76975.1917.37633.4977.68229.874.87403.2714.1383.5412.18237.7698.20105.2081.017.4539.01697.7063.01694h4.4164c.0262 0 .0393 0 .0632.00114.4938.02356.9279.45784.9512.95167.0011.02382.0011.03159.0011.04712v7.24136c0 .805 0 1.4693-.0442 2.0105-.0459.5621-.1445 1.0788-.3918 1.5642-.3835.7526-.9954 1.3645-1.748 1.748-.4854.2473-1.0021.3459-1.5642.3918-.5412.0442-1.2055.0442-2.0105.0442h-6.48262c-.80496 0-1.46931 0-2.0105-.0442-.5621-.0459-1.0788-.1445-1.56414-.3918-.75265-.3835-1.36457-.9954-1.74806-1.748-.2473-.4854-.34586-1.0021-.39178-1.5642-.04422-.5412-.04421-1.2055-.0442-2.0105v-10.48261c-.00001-.80496-.00002-1.46932.0442-2.01051.04592-.5621.14448-1.0788.39178-1.56414.38349-.75265.99541-1.36457 1.74806-1.74806.48534-.24729 1.00204-.34586 1.56414-.39178.54118-.04422 1.20553-.044211 2.01048-.0442h3.24134c.0156-.000005.0234-.000009.0473.00112.4937.02336.928.45738.9516.95115zm-2.2918 11.25483c.3905-.3905.3905-1.0237 0-1.4142s-1.02368-.3905-1.41421 0l-2.5 2.5c-.39052.3905-.39052 1.0237 0 1.4142l2.5 2.5c.39053.3905 1.02371.3905 1.41421 0s.3905-1.0237 0-1.4142l-1.79289-1.7929zm4-1.4142c-.3905-.3905-1.0237-.3905-1.4142 0s-.3905 1.0237 0 1.4142l1.7929 1.7929-1.7929 1.7929c-.3905.3905-.3905 1.0237 0 1.4142s1.0237.3905 1.4142 0l2.5-2.5c.3905-.3905.3905-1.0237 0-1.4142z" fill-rule="evenodd"/><path d="m19.4686 6.92627c-.1202.07373-.267.07373-.5606.07372l-3.108-.00004c-.28 0-.42-.00001-.527-.0545-.0941-.04794-.1706-.12443-.2185-.21851-.0545-.10695-.0545-.24696-.0545-.52698v-3.10792c0-.29362 0-.44043.0737-.5607.1042-.16984.3495-.27138.5432-.22482.1371.03297.2328.12871.4241.3202l3.3323 3.33232c.1915.19129.2872.28694.3202.42409.0465.19371-.055.43902-.2249.54314z"/></g></svg>

<svg width="24" height="24" viewBox="0 0 24 24" fill="none" xmlns="http://www.w3.org/2000/svg">
<path fill-rule="evenodd" clip-rule="evenodd" d="M12.9989 1.95227C13 1.97612 13 1.98927 13 2.01558L13 6.43191C13 6.68429 12.9999 6.93008 13.017 7.13824C13.0356 7.36683 13.0797 7.63657 13.218 7.90799C13.4097 8.28432 13.7157 8.59028 14.092 8.78202C14.3634 8.92032 14.6332 8.96439 14.8618 8.98307C15.0699 9.00007 15.3157 9.00004 15.5681 9.00001L19.9845 9.00001C20.0107 9.00001 20.0238 9.00001 20.0477 9.00115C20.5415 9.02471 20.9756 9.45899 20.9989 9.95282C21 9.97664 21 9.98441 21 9.99994V17.2413C21 18.0463 21 18.7106 20.9558 19.2518C20.9099 19.8139 20.8113 20.3306 20.564 20.816C20.1805 21.5686 19.5686 22.1805 18.816 22.564C18.3306 22.8113 17.8139 22.9099 17.2518 22.9558C16.7106 23 16.0463 23 15.2413 23H8.75868C7.95372 23 7.28937 23 6.74818 22.9558C6.18608 22.9099 5.66938 22.8113 5.18404 22.564C4.43139 22.1805 3.81947 21.5686 3.43598 20.816C3.18868 20.3306 3.09012 19.8139 3.0442 19.2518C2.99998 18.7106 2.99999 18.0463 3 17.2413V6.75869C2.99999 5.95373 2.99998 5.28937 3.0442 4.74818C3.09012 4.18608 3.18868 3.66938 3.43598 3.18404C3.81947 2.43139 4.43139 1.81947 5.18404 1.43598C5.66938 1.18869 6.18608 1.09012 6.74818 1.0442C7.28936 0.99998 7.95371 0.999989 8.75866 1H12C12.0156 0.999995 12.0234 0.999991 12.0473 1.00112C12.541 1.02448 12.9753 1.4585 12.9989 1.95227ZM10.7071 13.2071C11.0976 12.8166 11.0976 12.1834 10.7071 11.7929C10.3166 11.4024 9.68342 11.4024 9.29289 11.7929L6.79289 14.2929C6.40237 14.6834 6.40237 15.3166 6.79289 15.7071L9.29289 18.2071C9.68342 18.5976 10.3166 18.5976 10.7071 18.2071C11.0976 17.8166 11.0976 17.1834 10.7071 16.7929L8.91421 15L10.7071 13.2071ZM14.7071 11.7929C14.3166 11.4024 13.6834 11.4024 13.2929 11.7929C12.9024 12.1834 12.9024 12.8166 13.2929 13.2071L15.0858 15L13.2929 16.7929C12.9024 17.1834 12.9024 17.8166 13.2929 18.2071C13.6834 18.5976 14.3166 18.5976 14.7071 18.2071L17.2071 15.7071C17.5976 15.3166 17.5976 14.6834 17.2071 14.2929L14.7071 11.7929Z" fill="#801ED7"/>
<path d="M19.4686 6.92627C19.3484 7 19.2016 7 18.908 6.99999L15.8 6.99995C15.52 6.99995 15.38 6.99994 15.273 6.94545C15.1789 6.89751 15.1024 6.82102 15.0545 6.72694C15 6.61999 15 6.47998 15 6.19996L15 3.09204C15 2.79842 15 2.65161 15.0737 2.53134C15.1779 2.3615 15.4232 2.25996 15.6169 2.30652C15.754 2.33949 15.8497 2.43523 16.041 2.62672L19.3733 5.95904C19.5648 6.15033 19.6605 6.24598 19.6935 6.38313C19.74 6.57684 19.6385 6.82215 19.4686 6.92627Z" fill="#801ED7"/>
</svg>
